Img/check.svg

<svg width="60" height="60" viewBox="0 0 60 60" fill="none" xmlns="http://www.w3.org/2000/svg">
<g clip-path="url(#clip0)">
<path d="M57.507 29.224C56.769 28.907 55.954 28.898 55.21 29.195C54.466 29.493 53.882 30.062 53.566 30.799L53.347 31.31C52.94 30.761 52.401 30.299 51.729 30.01C50.362 29.425 48.854 29.678 47.743 30.517L28.134 24.136L28.293 23.764V23.763C29.054 21.989 28.23 19.927 26.456 19.167C25.598 18.8 24.647 18.785 23.777 19.133C23.139 19.388 22.605 19.816 22.219 20.365L17.19 16.744C16.574 16.299 15.799 16.161 15.069 16.366C14.338 16.569 13.746 17.087 13.448 17.783L12.603 19.753L11.047 19.085L11.294 18.509C11.549 17.916 11.561 17.24 11.326 16.655C11.103 16.098 10.683 15.665 10.145 15.434L8.23203 14.613C7.66203 14.368 7.02903 14.376 6.44703 14.635C5.89503 14.881 5.45703 15.33 5.21303 15.899L4.96603 16.476L4.50403 16.28C3.96403 16.05 3.36203 16.044 2.80503 16.265C2.22003 16.498 1.73903 16.973 1.48503 17.566L0.20203 20.557C-0.0419704 21.125 -0.0659704 21.753 0.13703 22.324C0.34903 22.923 0.78003 23.387 1.35003 23.632L1.81303 23.83L1.56603 24.407C1.05003 25.609 1.56503 26.988 2.71403 27.481L4.62703 28.301C4.90403 28.42 5.19603 28.48 5.48903 28.48C5.80103 28.48 6.11303 28.413 6.41103 28.28C6.96403 28.034 7.40203 27.585 7.64603 27.016L7.89303 26.439L9.45003 27.107L8.60503 29.076C8.30503 29.773 8.33803 30.558 8.69603 31.228C9.05203 31.898 9.68503 32.363 10.431 32.503L16.521 33.653C16.39 34.311 16.447 34.992 16.702 35.63C17.049 36.499 17.714 37.18 18.572 37.548C19.021 37.74 19.488 37.831 19.947 37.831C21.305 37.831 22.599 37.036 23.168 35.712L23.328 35.339L41.465 45.151C41.621 46.534 42.477 47.802 43.845 48.39C44.358 48.61 44.891 48.714 45.416 48.714C45.578 48.714 45.737 48.698 45.897 48.679L45.683 49.178C45.367 49.915 45.357 50.731 45.654 51.475C45.952 52.219 46.521 52.803 47.258 53.119C47.638 53.282 48.038 53.363 48.44 53.363C48.817 53.363 49.194 53.292 49.554 53.147C50.299 52.849 50.882 52.28 51.198 51.544L59.084 33.164C59.734 31.644 59.027 29.876 57.507 29.224ZM41.783 43.05L36.484 40.183L40.71 30.332L46.439 32.196L42.831 40.607L41.783 43.05ZM34.717 39.227L32.951 38.271L36.89 29.088L38.8 29.71L34.717 39.227ZM6.84403 23.812L5.80803 26.227C5.76403 26.331 5.68603 26.414 5.59603 26.454C5.55103 26.474 5.48603 26.494 5.41403 26.464L3.50103 25.644C3.38503 25.594 3.31503 25.398 3.40203 25.197L4.43803 22.782L2.13603 21.795C2.07103 21.767 2.03703 21.705 2.02103 21.658C1.98803 21.564 1.99503 21.451 2.03903 21.347L3.32203 18.355C3.36903 18.247 3.45103 18.162 3.54703 18.124C3.58003 18.11 3.61103 18.104 3.64103 18.104C3.66603 18.104 3.69203 18.109 3.71403 18.119L6.01503 19.106L7.05103 16.691C7.09603 16.587 7.17303 16.504 7.26403 16.463C7.31003 16.442 7.37903 16.425 7.44403 16.453L9.35803 17.274C9.40803 17.295 9.44503 17.337 9.46903 17.399C9.50803 17.495 9.50303 17.613 9.45603 17.721L8.42003 20.135L11.815 21.592L11.027 23.43L10.239 25.268L6.84403 23.812ZM10.461 30.288C10.42 30.211 10.363 30.053 10.443 29.865L12.051 26.117L14.442 20.544H14.441L15.286 18.574C15.366 18.386 15.52 18.319 15.604 18.296C15.638 18.286 15.685 18.277 15.739 18.277C15.822 18.277 15.922 18.298 16.022 18.37L21.345 22.203L20.765 23.555L17.247 31.757L10.801 30.54C10.601 30.5 10.502 30.365 10.461 30.288ZM19.36 35.71C18.992 35.552 18.708 35.26 18.559 34.888C18.41 34.517 18.415 34.11 18.572 33.743L23.698 21.793C23.856 21.425 24.148 21.14 24.52 20.992C24.7 20.92 24.888 20.885 25.077 20.885C25.277 20.885 25.478 20.926 25.669 21.007C26.037 21.165 26.321 21.457 26.47 21.828C26.619 22.2 26.615 22.608 26.456 22.977L26.225 23.515L22.502 32.193L21.33 34.923C21.004 35.684 20.121 36.035 19.36 35.71ZM24.628 32.308L27.342 25.982L34.98 28.468L31.185 37.316L24.12 33.493L24.628 32.308ZM44.633 46.552C43.619 46.117 43.149 44.939 43.583 43.926L47.914 33.829L48.314 32.898C48.639 32.14 49.378 31.686 50.155 31.686C50.418 31.686 50.684 31.739 50.94 31.848C51.952 32.282 52.422 33.455 51.993 34.468L47.258 45.505C46.822 46.517 45.644 46.988 44.633 46.552ZM57.244 32.375L49.358 50.756C49.253 51.001 49.058 51.191 48.81 51.29C48.561 51.39 48.289 51.386 48.045 51.28C47.799 51.175 47.609 50.98 47.51 50.732C47.411 50.484 47.414 50.211 47.52 49.966L49.096 46.293C49.096 46.292 49.097 46.291 49.098 46.29L53.829 35.262V35.261C53.829 35.261 53.829 35.259 53.83 35.259L55.405 31.587C55.567 31.208 55.937 30.981 56.326 30.981C56.457 30.981 56.591 31.007 56.719 31.062C57.225 31.28 57.461 31.869 57.244 32.375Z" fill="#1B2732"/>
<path d="M26.377 17.7401C26.615 17.7401 26.855 17.6551 27.045 17.4841L30.371 14.4951C30.782 14.1261 30.816 13.4931 30.447 13.0831C30.075 12.6701 29.443 12.6401 29.035 13.0071L25.709 15.9961C25.298 16.3651 25.264 16.9981 25.633 17.4081C25.831 17.6281 26.103 17.7401 26.377 17.7401Z" fill="#1B2732"/>
<path d="M32.999 11.362C33.237 11.362 33.477 11.277 33.667 11.106L36.993 8.117C37.404 7.748 37.438 7.115 37.069 6.705C36.698 6.291 36.065 6.262 35.657 6.629L32.331 9.618C31.92 9.987 31.886 10.62 32.255 11.03C32.453 11.25 32.725 11.362 32.999 11.362Z" fill="#1B2732"/>
<path d="M17.999 11.351C18.241 11.351 18.484 11.263 18.677 11.086L22.353 7.69601C22.759 7.32101 22.785 6.68901 22.411 6.28301C22.037 5.87701 21.405 5.85201 20.998 6.22501L17.322 9.61501C16.916 9.99001 16.89 10.622 17.264 11.028C17.461 11.243 17.729 11.351 17.999 11.351Z" fill="#1B2732"/>
<path d="M27.1081 10.46C27.3361 10.46 27.5651 10.383 27.7531 10.224L29.2801 8.93299C29.7021 8.57699 29.7551 7.94599 29.3981 7.52399C29.0411 7.10199 28.4111 7.04799 27.9891 7.40599L26.4621 8.69699C26.0401 9.05299 25.9871 9.68399 26.3441 10.106C26.5421 10.34 26.8241 10.46 27.1081 10.46Z" fill="#1B2732"/>
<path d="M19.4701 15.9161C19.6681 16.1501 19.9501 16.2701 20.2351 16.2701C20.4631 16.2701 20.6921 16.1931 20.8801 16.0341L24.6981 12.8051C25.1201 12.4491 25.1731 11.8181 24.8161 11.3961C24.4591 10.9741 23.8291 10.9201 23.4071 11.2781L19.5891 14.5071C19.1671 14.8641 19.1141 15.4951 19.4701 15.9161Z" fill="#1B2732"/>
<path d="M37.461 13.999C37.658 14.224 37.935 14.339 38.212 14.339C38.446 14.339 38.682 14.257 38.872 14.09L39.985 13.112C40.4 12.748 40.441 12.116 40.076 11.701C39.712 11.287 39.08 11.246 38.665 11.61L37.552 12.588C37.136 12.953 37.095 13.584 37.461 13.999Z" fill="#1B2732"/>
<path d="M30.699 19.939C30.896 20.164 31.173 20.279 31.45 20.279C31.684 20.279 31.92 20.197 32.11 20.03L35.867 16.73C36.282 16.366 36.323 15.734 35.958 15.319C35.594 14.905 34.962 14.864 34.547 15.228L30.79 18.528C30.375 18.892 30.334 19.524 30.699 19.939Z" fill="#1B2732"/>
<path d="M36.365 20.733C35.954 21.102 35.92 21.735 36.289 22.145C36.487 22.366 36.76 22.477 37.033 22.477C37.271 22.477 37.511 22.392 37.701 22.221L41.027 19.232C41.438 18.863 41.472 18.23 41.103 17.82C40.731 17.406 40.099 17.377 39.691 17.744L36.365 20.733Z" fill="#1B2732"/>
</g>
<defs>
<clipPath id="clip0">
<rect width="59.325" height="59.325" fill="white"/>
</clipPath>
</defs>
</svg>

<?xml version="1.0" encoding="iso-8859-1"?>
<!-- Generator: Adobe Illustrator 18.0.0, SVG Export Plug-In . SVG Version: 6.00 Build 0)  -->
<!DOCTYPE svg PUBLIC "-//W3C//DTD SVG 1.1//EN" "http://www.w3.org/Graphics/SVG/1.1/DTD/svg11.dtd">
<svg version="1.1" id="Capa_1" xmlns="http://www.w3.org/2000/svg" xmlns:xlink="http://www.w3.org/1999/xlink" x="0px" y="0px"
	 viewBox="0 0 59.325 59.325" style="enable-background:new 0 0 59.325 59.325;" xml:space="preserve">
<g>
	<path d="M57.507,29.224c-0.738-0.317-1.553-0.326-2.297-0.029c-0.744,0.298-1.328,0.867-1.644,1.604l-0.219,0.511
		c-0.407-0.549-0.946-1.011-1.618-1.3c-1.367-0.585-2.875-0.332-3.986,0.507l-19.609-6.381l0.159-0.372v-0.001
		c0.761-1.774-0.063-3.836-1.837-4.596c-0.858-0.367-1.809-0.382-2.679-0.034c-0.638,0.255-1.172,0.683-1.558,1.232l-5.029-3.621
		c-0.616-0.445-1.391-0.583-2.121-0.378c-0.731,0.203-1.323,0.721-1.621,1.417l-0.845,1.97l-1.556-0.668l0.247-0.576
		c0.255-0.593,0.267-1.269,0.032-1.854c-0.223-0.557-0.643-0.99-1.181-1.221l-1.913-0.821c-0.57-0.245-1.203-0.237-1.785,0.022
		c-0.552,0.246-0.99,0.695-1.234,1.264l-0.247,0.577L4.504,16.28c-0.54-0.23-1.142-0.236-1.699-0.015
		c-0.585,0.233-1.066,0.708-1.32,1.301l-1.283,2.991c-0.244,0.568-0.268,1.196-0.065,1.767c0.212,0.599,0.643,1.063,1.213,1.308
		l0.463,0.198l-0.247,0.577c-0.516,1.202-0.001,2.581,1.148,3.074l1.913,0.82c0.277,0.119,0.569,0.179,0.862,0.179
		c0.312,0,0.624-0.067,0.922-0.2c0.553-0.246,0.991-0.695,1.235-1.264l0.247-0.577l1.557,0.668l-0.845,1.969
		c-0.3,0.697-0.267,1.482,0.091,2.152c0.356,0.67,0.989,1.135,1.735,1.275l6.09,1.15c-0.131,0.658-0.074,1.339,0.181,1.977
		c0.347,0.869,1.012,1.55,1.87,1.918c0.449,0.192,0.916,0.283,1.375,0.283c1.358,0,2.652-0.795,3.221-2.119l0.16-0.373l18.137,9.812
		c0.156,1.383,1.012,2.651,2.38,3.239c0.513,0.22,1.046,0.324,1.571,0.324c0.162,0,0.321-0.016,0.481-0.035l-0.214,0.499
		c-0.316,0.737-0.326,1.553-0.029,2.297c0.298,0.744,0.867,1.328,1.604,1.644c0.38,0.163,0.78,0.244,1.182,0.244
		c0.377,0,0.754-0.071,1.114-0.216c0.745-0.298,1.328-0.867,1.644-1.603l7.886-18.38C59.734,31.644,59.027,29.876,57.507,29.224z
		 M41.783,43.05l-5.299-2.867l4.226-9.851l5.729,1.864l-3.608,8.411L41.783,43.05z M34.717,39.227l-1.766-0.956l3.939-9.183
		l1.91,0.622L34.717,39.227z M6.844,23.812l-1.036,2.415c-0.044,0.104-0.122,0.187-0.212,0.227c-0.045,0.02-0.11,0.04-0.182,0.01
		l-1.913-0.82c-0.116-0.05-0.186-0.246-0.099-0.447l1.036-2.415l-2.302-0.987c-0.065-0.028-0.099-0.09-0.115-0.137
		c-0.033-0.094-0.026-0.207,0.018-0.311l1.283-2.992c0.047-0.108,0.129-0.193,0.225-0.231c0.033-0.014,0.064-0.02,0.094-0.02
		c0.025,0,0.051,0.005,0.073,0.015l2.301,0.987l1.036-2.415c0.045-0.104,0.122-0.187,0.213-0.228c0.046-0.021,0.115-0.038,0.18-0.01
		l1.914,0.821c0.05,0.021,0.087,0.063,0.111,0.125c0.039,0.096,0.034,0.214-0.013,0.322L8.42,20.135l3.395,1.457l-0.788,1.838
		l-0.788,1.838L6.844,23.812z M10.461,30.288c-0.041-0.077-0.098-0.235-0.018-0.423l1.608-3.748l2.391-5.573l-0.001,0l0.845-1.97
		c0.08-0.188,0.234-0.255,0.318-0.278c0.034-0.01,0.081-0.019,0.135-0.019c0.083,0,0.183,0.021,0.283,0.093l5.323,3.833l-0.58,1.352
		l-3.518,8.202l-6.446-1.217C10.601,30.5,10.502,30.365,10.461,30.288z M19.36,35.71c-0.368-0.158-0.652-0.45-0.801-0.822
		c-0.149-0.371-0.144-0.778,0.013-1.145l5.126-11.95c0.158-0.368,0.45-0.653,0.822-0.801c0.18-0.072,0.368-0.107,0.557-0.107
		c0.2,0,0.401,0.041,0.592,0.122c0.368,0.158,0.652,0.45,0.801,0.821c0.149,0.372,0.145,0.78-0.014,1.149l-0.231,0.538l0,0
		l-3.723,8.678l-1.172,2.73C21.004,35.684,20.121,36.035,19.36,35.71z M24.628,32.308l2.714-6.326l7.638,2.486l-3.795,8.848
		l-7.065-3.823L24.628,32.308z M44.633,46.552c-1.014-0.435-1.484-1.613-1.05-2.626l4.331-10.097l0.4-0.931
		c0.325-0.758,1.064-1.212,1.841-1.212c0.263,0,0.529,0.053,0.785,0.162c1.012,0.434,1.482,1.607,1.053,2.62l-4.735,11.037
		C46.822,46.517,45.644,46.988,44.633,46.552z M57.244,32.375l-7.886,18.381c-0.105,0.245-0.3,0.435-0.548,0.534
		c-0.249,0.1-0.521,0.096-0.765-0.01c-0.246-0.105-0.436-0.3-0.535-0.548c-0.099-0.248-0.096-0.521,0.01-0.766l1.576-3.673
		c0-0.001,0.001-0.002,0.002-0.003l4.731-11.028v-0.001c0,0,0-0.002,0.001-0.002l1.575-3.672c0.162-0.379,0.532-0.606,0.921-0.606
		c0.131,0,0.265,0.026,0.393,0.081C57.225,31.28,57.461,31.869,57.244,32.375z"/>
	<path d="M26.377,17.74c0.238,0,0.478-0.085,0.668-0.256l3.326-2.989c0.411-0.369,0.445-1.002,0.076-1.412
		c-0.372-0.413-1.004-0.443-1.412-0.076l-3.326,2.989c-0.411,0.369-0.445,1.002-0.076,1.412
		C25.831,17.628,26.103,17.74,26.377,17.74z"/>
	<path d="M32.999,11.362c0.238,0,0.478-0.085,0.668-0.256l3.326-2.989c0.411-0.369,0.445-1.002,0.076-1.412
		c-0.371-0.414-1.004-0.443-1.412-0.076l-3.326,2.989c-0.411,0.369-0.445,1.002-0.076,1.412
		C32.453,11.25,32.725,11.362,32.999,11.362z"/>
	<path d="M17.999,11.351c0.242,0,0.485-0.088,0.678-0.265l3.676-3.39c0.406-0.375,0.432-1.007,0.058-1.413s-1.006-0.431-1.413-0.058
		l-3.676,3.39c-0.406,0.375-0.432,1.007-0.058,1.413C17.461,11.243,17.729,11.351,17.999,11.351z"/>
	<path d="M27.108,10.46c0.228,0,0.457-0.077,0.645-0.236l1.527-1.291c0.422-0.356,0.475-0.987,0.118-1.409s-0.987-0.476-1.409-0.118
		l-1.527,1.291c-0.422,0.356-0.475,0.987-0.118,1.409C26.542,10.34,26.824,10.46,27.108,10.46z"/>
	<path d="M19.47,15.916c0.198,0.234,0.48,0.354,0.765,0.354c0.228,0,0.457-0.077,0.645-0.236l3.818-3.229
		c0.422-0.356,0.475-0.987,0.118-1.409s-0.987-0.476-1.409-0.118l-3.818,3.229C19.167,14.864,19.114,15.495,19.47,15.916z"/>
	<path d="M37.461,13.999c0.197,0.225,0.474,0.34,0.751,0.34c0.234,0,0.47-0.082,0.66-0.249l1.113-0.978
		c0.415-0.364,0.456-0.996,0.091-1.411c-0.364-0.414-0.996-0.455-1.411-0.091l-1.113,0.978
		C37.136,12.953,37.095,13.584,37.461,13.999z"/>
	<path d="M30.699,19.939c0.197,0.225,0.474,0.34,0.751,0.34c0.234,0,0.47-0.082,0.66-0.249l3.757-3.3
		c0.415-0.364,0.456-0.996,0.091-1.411c-0.364-0.414-0.996-0.455-1.411-0.091l-3.757,3.3C30.375,18.892,30.334,19.524,30.699,19.939
		z"/>
	<path d="M36.365,20.733c-0.411,0.369-0.445,1.002-0.076,1.412c0.198,0.221,0.471,0.332,0.744,0.332
		c0.238,0,0.478-0.085,0.668-0.256l3.326-2.989c0.411-0.369,0.445-1.002,0.076-1.412c-0.372-0.414-1.004-0.443-1.412-0.076
		L36.365,20.733z"/>
</g>
<g>
</g>
<g>
</g>
<g>
</g>
<g>
</g>
<g>
</g>
<g>
</g>
<g>
</g>
<g>
</g>
<g>
</g>
<g>
</g>
<g>
</g>
<g>
</g>
<g>
</g>
<g>
</g>
<g>
</g>
</svg>
